X:0
T:No Cents
M:C|
C:© Paul Gitlitz 2008
R:Reel
K:D
"D"~D2 FD ADFD|"G"~G2 BG BdcB|"A"~A2 cA eAcA|"D"~d2 fd fage|!
"D"~D2 FD ADFD|"G"~G2 BG BdcB|"A"~A2 cA eAcA|1"D"dfec d4:|2"D"dfec d2ef|!
|:"G"gd(3ddd gdbg|"D"fd(3ddd fdaf|"A"cdef gedc|"D"defg a2gf|!
"G"gd(3ddd gdbg|"D"fd(3ddd fdaf|"A"cdef "G"gedc|1"D"dfec d2ef:|2"D"dfec d4|]
